
--d1 $ sound "glitch2"
d1 $ silence

-- d2 $ sound "bass1*4"
d2 $ silence

-- d3 $ sound "<bass1 bass1> bass1 bass1"

d3 $ every 3 rev (sound "[bass1 bass1]*2, bass1 bass1")

d4 $ slow 100 $ sound "noise*50"

hush
